X:494
T:Erik, erik a cseresznye
Z:Jack Campin, http://www.campin.me.uk/
F:Jack Campin's Nine-Note Tunebook
% last edit 03-02-2013
B:Martin, Hungarian Folk Dances
O:Davod, Bacs-Kiskun County
M:2/4
L:1/8
Q:1/4=120
K:DDor
d2 d2|cd  ed|(cB) A2 |\
d2 d2|c_B AG| A2  A2 |
G2 A2|FD  AG|(FE) D2 |\
G2 A2|c_B AG| D2  D2|]

